docs/svgs/ceiling-square.svg

<svg viewBox="0 0 24 24" height="24px" width="24px" fill="#44739e" xmlns="http://www.w3.org/2000/svg"><title>hue:ceiling-square</title><desc>Source: https://github.com/arallsopp/hass-hue-icons</desc><path d="M 17.851562 13.671875 L 12.472656 15.664062 C 12.167969 15.777344 11.832031 15.777344 11.527344 15.664062 L 6.148438 13.671875 C 5.949219 13.597656 5.953125 13.289062 6.152344 13.21875 L 11.546875 11.332031 C 11.839844 11.230469 12.160156 11.230469 12.453125 11.332031 L 17.847656 13.21875 C 18.050781 13.289062 18.050781 13.597656 17.851562 13.671875 M 20.601562 9.945312 L 12.472656 6.839844 C 12.167969 6.71875 11.835938 6.71875 11.527344 6.839844 L 3.398438 9.945312 C 3.160156 10.035156 3 10.300781 3 10.601562 L 3 13.386719 C 3 13.6875 3.160156 13.953125 3.398438 14.042969 L 11.527344 17.160156 C 11.835938 17.28125 12.167969 17.28125 12.472656 17.160156 L 20.601562 14.042969 C 20.839844 13.953125 21 13.6875 21 13.386719 L 21 10.601562 C 21 10.300781 20.839844 10.035156 20.601562 9.945312 "/></svg>

<svg viewBox="0 0 24 24" height="24px" width="24px" fill="#44739e" xmlns="http://www.w3.org/2000/svg"><title>hue:ceiling-square</title><desc>Source: https://github.com/arallsopp/hass-hue-icons</desc><path d="M17.85,13.67l-5.38,1.99c-0.3,0.11-0.64,0.11-0.95,0l-5.38-1.99c-0.2-0.07-0.2-0.38,0-0.45l5.39-1.89 c0.29-0.1,0.61-0.1,0.91,0l5.39,1.89C18.05,13.29,18.05,13.6,17.85,13.67 M20.6,9.95l-8.13-3.11c-0.3-0.12-0.64-0.12-0.95,0 L3.4,9.95C3.16,10.04,3,10.3,3,10.6v2.79c0,0.3,0.16,0.57,0.4,0.66l8.13,3.12c0.31,0.12,0.64,0.12,0.95,0l8.13-3.12 c0.24-0.09,0.4-0.36,0.4-0.66V10.6C21,10.3,20.84,10.04,20.6,9.95"/></svg>
